dist/Chech-mark.1d2ab0a0.svg

<svg width="77" height="82" viewBox="0 0 77 82" fill="none" xmlns="http://www.w3.org/2000/svg">
<path d="M40.2998 81.2276C29.8016 81.2276 19.7334 76.9993 12.3101 69.4729C4.88682 61.9465 0.716446 51.7385 0.716446 41.0945C0.716446 30.4506 4.88682 20.2426 12.3101 12.7161C19.7334 5.18972 29.8016 0.961426 40.2998 0.961426C40.8523 0.961426 41.3822 1.18397 41.7729 1.5801C42.1636 1.97622 42.3831 2.51349 42.3831 3.07369C42.3831 3.6339 42.1636 4.17117 41.7729 4.56729C41.3822 4.96342 40.8523 5.18596 40.2998 5.18596C34.4567 5.15084 28.6958 6.58203 23.5306 9.35198C18.3654 12.1219 13.9565 16.1446 10.6967 21.0613C7.43689 25.9781 5.42758 31.6362 4.84786 37.5313C4.26814 43.4264 5.13601 49.3754 7.37412 54.8479C9.61222 60.3204 13.151 65.1465 17.6751 68.8959C22.1992 72.6454 27.5679 75.2017 33.3028 76.337C39.0377 77.4723 44.9606 77.1513 50.5434 75.4026C56.1263 73.654 61.1957 70.532 65.2998 66.315C65.485 66.0927 65.7136 65.9115 65.9712 65.783C66.2287 65.6544 66.5097 65.5812 66.7965 65.568C67.0832 65.5547 67.3696 65.6017 67.6376 65.706C67.9056 65.8103 68.1495 65.9696 68.354 66.1739C68.5584 66.3783 68.7189 66.6232 68.8256 66.8935C68.9322 67.1637 68.9826 67.4534 68.9736 67.7443C68.9646 68.0352 68.8964 68.3211 68.7733 68.584C68.6502 68.8469 68.4748 69.0812 68.2581 69.2722C64.6151 73.0483 60.2663 76.0505 55.4659 78.1032C50.6655 80.156 45.5097 81.2181 40.2998 81.2276V81.2276Z" fill="#FF4343"></path>
<path d="M39.0497 54.6131C38.7795 54.6219 38.5104 54.5739 38.2595 54.4721C38.0085 54.3703 37.781 54.2169 37.5913 54.0216L20.9247 37.1235C20.7294 36.9271 20.5744 36.6935 20.4686 36.4361C20.3629 36.1787 20.3084 35.9026 20.3084 35.6238C20.3084 35.3449 20.3629 35.0688 20.4686 34.8114C20.5744 34.554 20.7294 34.3204 20.9247 34.1241C21.3211 33.7343 21.8516 33.5164 22.4038 33.5164C22.956 33.5164 23.4865 33.7343 23.883 34.1241L39.0497 49.5436L73.008 15.1136C73.4003 14.7159 73.9324 14.4924 74.4872 14.4924C75.042 14.4924 75.574 14.7159 75.9663 15.1136C76.3586 15.5114 76.579 16.0508 76.579 16.6133C76.579 17.1758 76.3586 17.7153 75.9663 18.1131L40.5497 54.0216C40.3508 54.2161 40.1158 54.3686 39.8583 54.4701C39.6008 54.5717 39.3259 54.6203 39.0497 54.6131V54.6131Z" fill="#FF4343"></path>
</svg>

<svg width="77" height="82" fill="none" xmlns="http://www.w3.org/2000/svg"><path d="M40.3 81.228c-10.498 0-20.567-4.229-27.99-11.755C4.887 61.947.716 51.739.716 41.094c0-10.643 4.17-20.851 11.594-28.378C19.733 5.19 29.802.961 40.3.961c.552 0 1.082.223 1.473.62.39.395.61.932.61 1.493 0 .56-.22 1.097-.61 1.493-.39.396-.92.619-1.473.619a35.028 35.028 0 0 0-16.77 4.166 35.59 35.59 0 0 0-12.833 11.71 36.225 36.225 0 0 0-5.85 16.47 36.361 36.361 0 0 0 2.527 17.316 35.875 35.875 0 0 0 10.301 14.048 35.206 35.206 0 0 0 15.628 7.441 34.95 34.95 0 0 0 17.24-.934A35.334 35.334 0 0 0 65.3 66.315a2.087 2.087 0 0 1 1.496-.747 2.056 2.056 0 0 1 1.558.606 2.116 2.116 0 0 1 .62 1.57 2.136 2.136 0 0 1-.716 1.528 39.19 39.19 0 0 1-12.792 8.831A38.744 38.744 0 0 1 40.3 81.228Z" fill="#FF4343"></path><path d="M39.05 54.613a1.934 1.934 0 0 1-1.459-.591L20.925 37.124a2.115 2.115 0 0 1-.617-1.5 2.14 2.14 0 0 1 .617-1.5 2.11 2.11 0 0 1 1.479-.608 2.11 2.11 0 0 1 1.479.608l15.167 15.42 33.958-34.43a2.078 2.078 0 0 1 1.48-.622c.554 0 1.086.224 1.478.622.393.397.613.937.613 1.5 0 .562-.22 1.101-.613 1.5L40.55 54.021a2.08 2.08 0 0 1-1.5.591Z" fill="#FF4343"></path></svg>
